**kern	**kern	**kern	**kern
*staff4	*staff3	*staff2	*staff1
*clefF4	*clefF4	*clefG2	*clefG2
*k[f#]	*k[f#]	*k[f#]	*k[f#]
*M2/4	*M2/4	*M2/4	*M2/4
*G:	*G:	*G:	*G:
=-	=-	=-	=-
8r	8r	8r	8b
=108	=108	=108	=108
24EELL	8E 8G 8B	8e 8g 8b	8ee 8gg 8bb
24GG	.	.	.
24FF#J	.	.	.
24GGL	8r	8r	8r
24FF#	.	.	.
24EEJJ	.	.	.
24FF#LL	8F# 8A 8B	8d# 8f# 8a	8b 8dd#
24AA	.	.	.
24GGJ	.	.	.
24AAL	8r	8r	8r
24GG	.	.	.
24FF#JJ	.	.	.
=109	=109	=109	=109
24GGLL	8EL 8G 8B	8eL 8g	8bL 8ee
24BB	.	.	.
24GGJ	.	.	.
24EEL	8EJ 8G 8c	8eJ 8g 8cc	8eeJ 8gg 8ccc
24GG	.	.	.
24CJJ	.	.	.
24DDLL	8DL 8F 8B	8fL 8g 8b	8ffL 8gg 8bb
24GG	.	.	.
24BBJ	.	.	.
24BBBL	8BBJ 8D 8G	8gJ 8dd 8ff	8ggJ 8bb 8ddd 8fff
24GG	.	.	.
24BBJJ	.	.	.
=110	=110	=110	=110
24CCLL	8CL 8E 8G	8gL 8cc 8ee	8ggL 8ccc 8eee
24GG	.	.	.
24CJ	.	.	.
24GGG#L	8DJ 8E 8B	8eJ 8b	8ddJ 8ee 8bb
24EE	.	.	.
24GG#JJ	.	.	.
24AAALL	8CL 8E 8c	8eL 8cc	8eeL 8aa 8ccc
24EE	.	.	.
24AAJ	.	.	.
24CCL	8CJ 8E 8A	8eJ 8a	8ccJ 8ee 8aa
24EE	.	.	.
24AAJJ	.	.	.
=111	=111	=111	=111
*	*	*^	*
24DDLL	(4G 4B	(4g	4.d	(4b 4dd 4gg
24GG	.	.	.	.
24BBJ	.	.	.	.
24DL	.	.	.	.
24BB	.	.	.	.
24GGJJ	.	.	.	.
24DDLL	8F#L) 8A	8f#L)	.	8aL) 8dd 8ff#
24FF#	.	.	.	.
24AAJ	.	.	.	.
24DL	8F#J 8A 8d	8f#J	8r	8aJ 8dd
24AA	.	.	.	.
24FF#JJ	.	.	.	.
*	*	*v	*v	*
=112	=112	=112	=112
24DDLL	8G 8B 8d	8e 8g	8b 8ee
24GG	.	.	.
24BBJ	.	.	.
24DL	8r	8r	8r
24C#	.	.	.
24DJJ	.	.	.
24DDLL	8G 8B 8d	8g 8b	8ee 8gg 8bb 8eee
24GG	.	.	.
24BBJ	.	.	.
24DL	8r	8r	8r
24C#	.	.	.
24DJJ	.	.	.
=113	=113	=113	=113
24DDLL	4D 4F# 4A 4c	4d 4f# 4a	4cc 4dd 4ff#
24FF#	.	.	.
24AAJ	.	.	.
24CL	.	.	.
24AA	.	.	.
24GGJJ	.	.	.
24FF#LL	8r	8r	8r
24EE	.	.	.
24DDJ	.	.	.
24CCL	8F# 8A 8c	8f# 8a 8cc	8dd 8ff# 8aa
24BBB	.	.	.
24AAAJJ	.	.	.
=	=	=	=
*-	*-	*-	*-
